icons/4_Outdated/1Password v1.svg

<svg width="1024" height="1024" fill="none" xmlns="http://www.w3.org/2000/svg"><g clip-path="url(#a)"><path d="M512 1024c282.77 0 512-229.23 512-512S794.77 0 512 0 0 229.23 0 512s229.23 512 512 512Z" fill="#728DBE"/><path d="M512 236.48c152.16 0 275.521 123.36 275.521 275.52 0 152.16-123.361 275.521-275.521 275.521-152.16 0-275.52-123.351-275.52-275.521 0-152.17 123.36-275.52 275.52-275.52Zm0 56c-121.26 0-219.55 98.3-219.55 219.56S390.74 731.56 512 731.56 731.56 633.26 731.56 512 633.26 292.45 512 292.45v.03Zm0 56A163.59 163.59 0 1 1 348.41 512 163.59 163.59 0 0 1 512 348.41v.07Zm26.391 47.35H485.61c-6.58 0-12 5.73-12.33 12.95v55.97a10.312 10.312 0 0 0 2 5.76l.49.6 7.72 8.6A10.001 10.001 0 0 1 484 492l-.48.58-7.72 8.6a9.657 9.657 0 0 0-2.38 5.68v.81l-.08 106.781c0 7.329 5.14 13.319 11.63 13.729h53.52c6.58 0 12.001-5.73 12.33-12.95v-51.81a9.815 9.815 0 0 0-1.919-5.889l-.491-.601-7.72-8.599a10.004 10.004 0 0 1-.479-12.391l.479-.58 7.72-8.6a9.639 9.639 0 0 0 2.38-5.679V409.52c-.04-7.6-5.57-13.75-12.399-13.75v.06Z" fill="#fff"/></g><defs><clipPath id="a"><path fill="#fff" d="M0 0h1024v1024H0z"/></clipPath></defs></svg>

<svg width="1024" height="1024" viewBox="0 0 1024 1024" fill="none" xmlns="http://www.w3.org/2000/svg">
<g clip-path="url(#clip0_3_734)">
<path d="M512 1024C794.77 1024 1024 794.77 1024 512C1024 229.23 794.77 0 512 0C229.23 0 0 229.23 0 512C0 794.77 229.23 1024 512 1024Z" fill="#728DBE"/>
<path d="M512 236.48C664.16 236.48 787.521 359.84 787.521 512C787.521 664.16 664.16 787.521 512 787.521C359.84 787.521 236.48 664.17 236.48 512C236.48 359.83 359.84 236.48 512 236.48ZM512 292.48C390.74 292.48 292.45 390.78 292.45 512.04C292.45 633.3 390.74 731.56 512 731.56C633.26 731.56 731.56 633.26 731.56 512C731.56 390.74 633.26 292.45 512 292.45V292.48ZM512 348.48C544.359 348.48 575.99 358.077 602.893 376.055C629.797 394.034 650.765 419.587 663.145 449.483C675.524 479.38 678.76 512.276 672.442 544.011C666.124 575.746 650.537 604.895 627.651 627.771C604.766 650.646 575.61 666.221 543.872 672.526C512.134 678.83 479.24 675.58 449.349 663.188C419.458 650.795 393.913 629.817 375.946 602.905C357.979 575.994 348.397 544.359 348.41 512C348.41 468.614 365.646 427.004 396.325 396.325C427.004 365.646 468.614 348.41 512 348.41V348.48ZM538.391 395.83H485.61C479.03 395.83 473.61 401.56 473.28 408.78V464.75C473.351 466.828 474.048 468.836 475.28 470.51L475.77 471.11L483.49 479.71C484.933 481.409 485.766 483.541 485.859 485.768C485.951 487.994 485.297 490.188 484 492L483.52 492.58L475.8 501.18C474.408 502.763 473.572 504.758 473.42 506.86V507.67L473.34 614.451C473.34 621.78 478.48 627.77 484.97 628.18H538.49C545.07 628.18 550.491 622.45 550.82 615.23V563.42C550.833 561.301 550.159 559.235 548.901 557.531L548.41 556.93L540.69 548.331C539.228 546.62 538.385 544.467 538.298 542.219C538.211 539.971 538.885 537.759 540.211 535.94L540.69 535.36L548.41 526.76C549.803 525.178 550.639 523.183 550.79 521.081V409.52C550.75 401.92 545.22 395.77 538.391 395.77V395.83Z" fill="white"/>
</g>
<defs>
<clipPath id="clip0_3_734">
<rect width="1024" height="1024" fill="white"/>
</clipPath>
</defs>
</svg>
